assets/components_previews/forms/dark/select.svg

<svg xmlns="http://www.w3.org/2000/svg" width="320" height="232" fill="none" viewBox="0 0 320 232"><g filter="url(#a)"><rect width="162" height="32" x="79" y="100" fill="#0E0F10" rx="8"/><path fill="#5F43D0" d="M95.844 121.126c-2.618 0-4.242-1.218-4.508-3.346h2.072c.126 1.078 1.106 1.75 2.534 1.75 1.162 0 1.806-.434 1.806-1.134 0-.644-.336-1.022-1.246-1.274l-1.876-.518c-1.932-.532-2.772-1.456-2.772-2.884 0-1.82 1.498-2.954 3.794-2.954 2.352 0 3.822 1.204 4.004 3.038H97.58c-.182-.98-.938-1.442-2.058-1.442-.98 0-1.596.406-1.596 1.036 0 .49.224.896 1.232 1.176l1.876.518c1.974.546 2.786 1.47 2.786 2.898 0 2.016-1.47 3.136-3.976 3.136m8.286.014c-2.38 0-3.92-1.512-3.92-3.71 0-2.212 1.554-3.71 3.85-3.71 2.212 0 3.626 1.428 3.626 3.57 0 .308-.028.546-.056.77h-5.292c.14 1.064.742 1.568 1.778 1.568.672 0 1.162-.21 1.414-.714h1.974c-.476 1.386-1.596 2.226-3.374 2.226m-.098-5.908c-.882 0-1.47.476-1.666 1.442h3.192c-.084-.98-.644-1.442-1.526-1.442m4.603 5.768v-10.08h2.1V121zm6.958.14c-2.38 0-3.92-1.512-3.92-3.71 0-2.212 1.554-3.71 3.85-3.71 2.212 0 3.626 1.428 3.626 3.57 0 .308-.028.546-.056.77h-5.292c.14 1.064.742 1.568 1.778 1.568.672 0 1.162-.21 1.414-.714h1.974c-.476 1.386-1.596 2.226-3.374 2.226m-.098-5.908c-.882 0-1.47.476-1.666 1.442h3.192c-.084-.98-.644-1.442-1.526-1.442m7.973 5.908c-2.24 0-3.794-1.554-3.794-3.71s1.554-3.71 3.794-3.71c1.876 0 3.262 1.092 3.542 2.702h-2.03c-.21-.686-.784-1.05-1.484-1.05-1.022 0-1.638.798-1.638 2.058s.616 2.058 1.638 2.058c.7 0 1.274-.364 1.484-1.05h2.03c-.28 1.61-1.666 2.702-3.542 2.702m7.744.014c-1.834 0-2.702-.868-2.702-2.688v-3.01h-1.33v-1.596h1.33v-1.596l2.1-.784v2.38h1.848v1.596h-1.848v3.08c0 .644.35.952 1.092.952.28 0 .518-.056.756-.14v1.596c-.252.14-.7.21-1.246.21"/><path stroke="#4329AC" stroke-linecap="round" stroke-linejoin="round" stroke-width="2" d="m216 114 5 5 5-5"/></g><defs><filter id="a" width="202" height="72" x="59" y="92" color-interpolation-filters="sRGB" filterUnits="userSpaceOnUse"><feFlood flood-opacity="0" result="BackgroundImageFix"/><feColorMatrix in="SourceAlpha" result="hardAlpha" values="0 0 0 0 0 0 0 0 0 0 0 0 0 0 0 0 0 0 127 0"/><feOffset dy="12"/><feGaussianBlur stdDeviation="10"/><feComposite in2="hardAlpha" operator="out"/><feColorMatrix values="0 0 0 0 0 0 0 0 0 0 0 0 0 0 0 0 0 0 0.03 0"/><feBlend in2="BackgroundImageFix" result="effect1_dropShadow_10159_3219"/><feColorMatrix in="SourceAlpha" result="hardAlpha" values="0 0 0 0 0 0 0 0 0 0 0 0 0 0 0 0 0 0 127 0"/><feOffset dy="2"/><feGaussianBlur stdDeviation="3"/><feComposite in2="hardAlpha" operator="out"/><feColorMatrix values="0 0 0 0 0 0 0 0 0 0 0 0 0 0 0 0 0 0 0.05 0"/><feBlend in2="effect1_dropShadow_10159_3219" result="effect2_dropShadow_10159_3219"/><feBlend in="SourceGraphic" in2="effect2_dropShadow_10159_3219" result="shape"/></filter></defs></svg>

<svg width="320" height="232" viewBox="0 0 320 232" fill="none" xmlns="http://www.w3.org/2000/svg">
<g filter="url(#filter0_dd_10159_3219)">
<rect x="79" y="100" width="162" height="32" rx="8" fill="#0E0F10"/>
<path d="M95.844 121.126C93.226 121.126 91.602 119.908 91.336 117.78H93.408C93.534 118.858 94.514 119.53 95.942 119.53C97.104 119.53 97.748 119.096 97.748 118.396C97.748 117.752 97.412 117.374 96.502 117.122L94.626 116.604C92.694 116.072 91.854 115.148 91.854 113.72C91.854 111.9 93.352 110.766 95.648 110.766C98 110.766 99.47 111.97 99.652 113.804H97.58C97.398 112.824 96.642 112.362 95.522 112.362C94.542 112.362 93.926 112.768 93.926 113.398C93.926 113.888 94.15 114.294 95.158 114.574L97.034 115.092C99.008 115.638 99.82 116.562 99.82 117.99C99.82 120.006 98.35 121.126 95.844 121.126ZM104.13 121.14C101.75 121.14 100.21 119.628 100.21 117.43C100.21 115.218 101.764 113.72 104.06 113.72C106.272 113.72 107.686 115.148 107.686 117.29C107.686 117.598 107.658 117.836 107.63 118.06H102.338C102.478 119.124 103.08 119.628 104.116 119.628C104.788 119.628 105.278 119.418 105.53 118.914H107.504C107.028 120.3 105.908 121.14 104.13 121.14ZM104.032 115.232C103.15 115.232 102.562 115.708 102.366 116.674H105.558C105.474 115.694 104.914 115.232 104.032 115.232ZM108.635 121V110.92H110.735V121H108.635ZM115.593 121.14C113.213 121.14 111.673 119.628 111.673 117.43C111.673 115.218 113.227 113.72 115.523 113.72C117.735 113.72 119.149 115.148 119.149 117.29C119.149 117.598 119.121 117.836 119.093 118.06H113.801C113.941 119.124 114.543 119.628 115.579 119.628C116.251 119.628 116.741 119.418 116.993 118.914H118.967C118.491 120.3 117.371 121.14 115.593 121.14ZM115.495 115.232C114.613 115.232 114.025 115.708 113.829 116.674H117.021C116.937 115.694 116.377 115.232 115.495 115.232ZM123.468 121.14C121.228 121.14 119.674 119.586 119.674 117.43C119.674 115.274 121.228 113.72 123.468 113.72C125.344 113.72 126.73 114.812 127.01 116.422H124.98C124.77 115.736 124.196 115.372 123.496 115.372C122.474 115.372 121.858 116.17 121.858 117.43C121.858 118.69 122.474 119.488 123.496 119.488C124.196 119.488 124.77 119.124 124.98 118.438H127.01C126.73 120.048 125.344 121.14 123.468 121.14ZM131.212 121.154C129.378 121.154 128.51 120.286 128.51 118.466V115.456H127.18V113.86H128.51V112.264L130.61 111.48V113.86H132.458V115.456H130.61V118.536C130.61 119.18 130.96 119.488 131.702 119.488C131.982 119.488 132.22 119.432 132.458 119.348V120.944C132.206 121.084 131.758 121.154 131.212 121.154Z" fill="#5F43D0"/>
<path d="M216 114L221 119L226 114" stroke="#4329AC" stroke-width="2" stroke-linecap="round" stroke-linejoin="round"/>
</g>
<defs>
<filter id="filter0_dd_10159_3219" x="59" y="92" width="202" height="72" filterUnits="userSpaceOnUse" color-interpolation-filters="sRGB">
<feFlood flood-opacity="0" result="BackgroundImageFix"/>
<feColorMatrix in="SourceAlpha" type="matrix" values="0 0 0 0 0 0 0 0 0 0 0 0 0 0 0 0 0 0 127 0" result="hardAlpha"/>
<feOffset dy="12"/>
<feGaussianBlur stdDeviation="10"/>
<feComposite in2="hardAlpha" operator="out"/>
<feColorMatrix type="matrix" values="0 0 0 0 0 0 0 0 0 0 0 0 0 0 0 0 0 0 0.03 0"/>
<feBlend mode="normal" in2="BackgroundImageFix" result="effect1_dropShadow_10159_3219"/>
<feColorMatrix in="SourceAlpha" type="matrix" values="0 0 0 0 0 0 0 0 0 0 0 0 0 0 0 0 0 0 127 0" result="hardAlpha"/>
<feOffset dy="2"/>
<feGaussianBlur stdDeviation="3"/>
<feComposite in2="hardAlpha" operator="out"/>
<feColorMatrix type="matrix" values="0 0 0 0 0 0 0 0 0 0 0 0 0 0 0 0 0 0 0.05 0"/>
<feBlend mode="normal" in2="effect1_dropShadow_10159_3219" result="effect2_dropShadow_10159_3219"/>
<feBlend mode="normal" in="SourceGraphic" in2="effect2_dropShadow_10159_3219" result="shape"/>
</filter>
</defs>
</svg>
